icons/night/heroku.svg

<svg
  viewBox="0 0 16 16"
  xmlns="http://www.w3.org/2000/svg"
  xml:space="preserve"
  style="fill-rule:evenodd;clip-rule:evenodd;stroke-linejoin:round;stroke-miterlimit:2"
><path
    d="m37 108.7 14.1-14.1L37 80.5v28.2Zm14-60.9V18.4l-13.9.1s.1 45.9.2 45.7C80.1 47.5 77 59.4 77 59.4v49.4l-.1.2H90V59.5c0-27.1-39-11.7-39-11.7ZM70 36h14.8c8-10 10.7-17 10.7-17H80.2S75.3 30 70 36Z"
    style="fill:#9d7cd8;fill-rule:nonzero"
    transform="matrix(.14326 0 0 .13242 -1.49 -.435)"
  /></svg>

<?xml version="1.0" encoding="UTF-8" standalone="no"?>
<!DOCTYPE svg PUBLIC "-//W3C//DTD SVG 1.1//EN" "http://www.w3.org/Graphics/SVG/1.1/DTD/svg11.dtd">
<svg width="100%" height="100%" viewBox="0 0 16 16" version="1.1" xmlns="http://www.w3.org/2000/svg" xmlns:xlink="http://www.w3.org/1999/xlink" xml:space="preserve" xmlns:serif="http://www.serif.com/" style="fill-rule:evenodd;clip-rule:evenodd;stroke-linejoin:round;stroke-miterlimit:2;">
    <g transform="matrix(0.143256,0,0,0.132425,-1.49071,-0.435499)">
        <path d="M37,108.7L51.1,94.6L37,80.5L37,108.7ZM51,47.8L51,18.4L37.1,18.5C37.1,18.5 37.2,64.4 37.3,64.2C80.1,47.5 77,59.4 77,59.4L77,108.8L76.9,109L90,109L90,59.5C90,32.4 51,47.8 51,47.8ZM70,36L84.8,36C92.8,26 95.5,19 95.5,19L80.2,19C80.2,19 75.3,30 70,36Z" style="fill:rgb(103,98,166);fill-rule:nonzero;"/>
    </g>
</svg>
